X:311
T:Swinging on a gate
R:Reel
O:Ireland
B:NE Fiddlers
B:Fiddler's Fakebook
S:My arrangement from various sources
Z:Transcription, arrangement, chords:Mike Long
M:C|
L:1/8
K:G
f|\
"G"gedB G2AB|"C"cABG AGEG|"G"DGBd g2gg|"D"fgag fdef|\
"G"gedB G2AB|
"C"cABG AGEG|cABG AGEG|"D"DGGF "G"G3:|\
|:d|\
"G"gfga bagf|gfed B2AG|
"Am"EAAB cBAG|"Am"EAAB "D"cdef|\
"G"~g2ga bagf|gfed B2Bd|"C"cABG AGEG|"D"DGGF "G"G3:|
